X: 34897
T: Rochdale Coconut Dance
R: reel
M: 4/4
K: Gmajor
|:EFGF E2 B2|EFGF E2 B2|c2 Ac B2 G2|AG F2 E2 D2|
EFGF E2 B2|EFGF E2 B2|c2 Ac B2 G2|AG F2 G4:|
|:G2 BB G2 B2|AGFG ABcA|G2 BB G2 B2|AGFE D2 D2|
G2 BB G2 B2|AGFG ABcA|BdcB AcBA|G2 B2 G4:|

